chrome/icons/speaker3.svg

<svg xmlns="http://www.w3.org/2000/svg" width="16" height="16" viewBox="103 196 820 818"><path fill="context-fill" fill-opacity="context-fill-opacity" d="M614.4 245.76q0-20.48-14.336-34.816-14.336-14.335-34.816-15.36t-36.864 13.312l-198.656 184.32q-8.192 6.144-16.384 6.144H178.176q-30.72 0-53.248 22.528T102.4 475.136v256q0 32.768 22.528 55.296t53.248 22.528h135.168q8.192 0 16.384 6.144l198.656 184.32q16.385 14.335 36.864 13.316 20.48-1.034 34.816-15.364Q614.4 983.04 614.4 962.56ZM364.544 430.08 563.2 245.76v716.8L364.544 778.24q-22.528-20.48-51.2-20.48H178.176q-10.24 0-17.408-7.168t-7.168-19.456v-256q0-10.24 7.168-17.408t17.408-7.168h135.168q28.672 0 51.2-20.48m415.744-100.352q8.192-8.192 19.456-7.168t17.408 9.216q69.632 75.776 93.184 174.08t0 196.608-93.184 174.08q-6.144 8.192-17.408 9.216t-18.432-6.144-8.192-17.408 5.12-18.432q61.44-67.584 81.92-153.6t0-172.032-81.92-153.6q-6.144-8.192-5.12-18.432t7.168-16.384m-59.392 423.936q-8.192-4.096-11.264-14.336t1.024-20.48q30.72-51.2 31.744-113.664t-31.744-115.712q-4.096-10.24-2.048-20.48t11.264-15.36 19.456-2.048 16.384 11.264q38.912 67.584 37.888 142.336t-37.888 140.288q-6.144 8.192-16.384 11.264t-18.432-3.072"/></svg>

<svg height="16" viewBox="103 196 820 818" width="16" xmlns="http://www.w3.org/2000/svg" xmlns:xlink="http://www.w3.org/1999/xlink">
  <path d="M614.4,245.76C614.4,232.107 609.621,220.501 600.064,210.944C590.507,201.387 578.901,196.267 565.248,195.584C551.595,194.901 539.307,199.339 528.384,208.896L329.728,393.216C324.267,397.312 318.805,399.36 313.344,399.36L178.176,399.36C157.696,399.36 139.947,406.869 124.928,421.888C109.909,436.907 102.4,454.656 102.4,475.136L102.4,731.136C102.4,752.981 109.909,771.413 124.928,786.432C139.947,801.451 157.696,808.96 178.176,808.96L313.344,808.96C318.805,808.96 324.267,811.008 329.728,815.104L528.384,999.424C539.307,1008.98 551.595,1013.42 565.248,1012.74C578.901,1012.05 590.507,1006.93 600.064,997.376C609.621,987.819 614.4,976.213 614.4,962.56ZM364.544,430.08L563.2,245.76L563.2,962.56L364.544,778.24C349.525,764.587 332.459,757.76 313.344,757.76L178.176,757.76C171.349,757.76 165.547,755.371 160.768,750.592C155.989,745.813 153.6,739.328 153.6,731.136L153.6,475.136C153.6,468.309 155.989,462.507 160.768,457.728C165.547,452.949 171.349,450.56 178.176,450.56L313.344,450.56C332.459,450.56 349.525,443.733 364.544,430.08ZM780.288,329.728C785.749,324.267 792.235,321.877 799.744,322.56C807.253,323.243 813.056,326.315 817.152,331.776C863.573,382.293 894.635,440.32 910.336,505.856C926.037,571.392 926.037,636.928 910.336,702.464C894.635,768 863.573,826.027 817.152,876.544C813.056,882.005 807.253,885.077 799.744,885.76C792.235,886.443 786.091,884.395 781.312,879.616C776.533,874.837 773.803,869.035 773.12,862.208C772.437,855.381 774.144,849.237 778.24,843.776C819.2,798.72 846.507,747.52 860.16,690.176C873.813,632.832 873.813,575.488 860.16,518.144C846.507,460.8 819.2,409.6 778.24,364.544C774.144,359.083 772.437,352.939 773.12,346.112C773.803,339.285 776.192,333.824 780.288,329.728ZM720.896,753.664C715.435,750.933 711.68,746.155 709.632,739.328C707.584,732.501 707.925,725.675 710.656,718.848C731.136,684.715 741.717,646.827 742.4,605.184C743.083,563.541 732.501,524.971 710.656,489.472C707.925,482.645 707.243,475.819 708.608,468.992C709.973,462.165 713.728,457.045 719.872,453.632C726.016,450.219 732.501,449.536 739.328,451.584C746.155,453.632 751.616,457.387 755.712,462.848C781.653,507.904 794.283,555.349 793.6,605.184C792.917,655.019 780.288,701.781 755.712,745.472C751.616,750.933 746.155,754.688 739.328,756.736C732.501,758.784 726.357,757.76 720.896,753.664Z" fill="context-fill" fill-opacity="context-fill-opacity">
  </path>
</svg>
